X: 17008
T: Healing Stone, The
R: reel
M: 4/4
K: Gmajor
g2dg edBA|G3B ABGE|DEGA Bdgd|egdB BAA2|
gedg edBA|GABG ABGE|DEGA Bdgd|egdc BGG2:|
BGG2 BGBd|g2bg abga|bage d3g|egdB BAA2|
g2bg abge|d2BG ABGE|DEGA Bdgd|egdc BGG2:|

